src/assets/outline/TextItalic.svg

<svg width="24" height="24" viewBox="0 0 24 24"  xmlns="http://www.w3.org/2000/svg">
<path d="M18.8799 3.75H9.61988C9.20988 3.75 8.87988 3.41 8.87988 3C8.87988 2.59 9.21988 2.25 9.62988 2.25H18.8799C19.2899 2.25 19.6299 2.59 19.6299 3C19.6299 3.41 19.2899 3.75 18.8799 3.75Z" />
<path d="M14.3801 21.75H5.12012C4.71012 21.75 4.37012 21.41 4.37012 21C4.37012 20.59 4.71012 20.25 5.12012 20.25H14.3701C14.7801 20.25 15.1201 20.59 15.1201 21C15.1201 21.41 14.7901 21.75 14.3801 21.75Z" />
<path d="M9.7501 21.75C9.6901 21.75 9.6301 21.74 9.5701 21.73C9.1701 21.63 8.9201 21.22 9.0201 20.82L13.5201 2.81998C13.6201 2.41998 14.0201 2.16998 14.4301 2.26998C14.8301 2.36998 15.0801 2.77998 14.9801 3.17998L10.4801 21.18C10.3901 21.52 10.0901 21.75 9.7501 21.75Z" />
</svg>

<?xml version="1.0" encoding="UTF-8"?>
<svg width="24" height="24" viewBox="0 0 24 24" xmlns="http://www.w3.org/2000/svg">
 <path d="m18.88 3.75h-9.26c-0.41 0-0.74-0.34-0.74-0.75s0.34-0.75 0.75-0.75h9.25c0.41 0 0.75 0.34 0.75 0.75s-0.34 0.75-0.75 0.75z"/>
 <path d="m14.38 21.75h-9.26c-0.41 0-0.75-0.34-0.75-0.75s0.34-0.75 0.75-0.75h9.25c0.41 0 0.75 0.34 0.75 0.75s-0.33 0.75-0.74 0.75z"/>
 <path d="m9.7501 21.75c-0.06 0-0.12-0.01-0.18-0.02-0.4-0.1-0.65-0.51-0.55-0.91l4.5-18c0.1-0.4 0.5-0.65 0.91-0.55 0.4 0.1 0.65 0.51 0.55 0.91l-4.5 18c-0.09 0.34-0.39 0.57-0.73 0.57z"/>
</svg>
